dist/svgs/carbon-icons/svg/filter-glyph.svg

<svg xmlns="http://www.w3.org/2000/svg" fill-rule="evenodd" viewBox="0 0 16 16"><path d="M5 0C3.7 0 2.6.8 2.2 2H0v2h2.2C2.6 5.2 3.7 6 5 6c1.3 0 2.4-.8 2.8-2H16V2H7.8C7.4.8 6.3 0 5 0zm0 4c-.6 0-1-.4-1-1s.4-1 1-1 1 .4 1 1-.4 1-1 1zm0 6c-1.3 0-2.4.8-2.8 2H0v2h2.2c.4 1.2 1.5 2 2.8 2 1.3 0 2.4-.8 2.8-2H16v-2H7.8c-.4-1.2-1.5-2-2.8-2zm0 4c-.6 0-1-.4-1-1s.4-1 1-1 1 .4 1 1-.4 1-1 1z"/><path d="M11 5c-1.3 0-2.4.8-2.8 2H0v2h8.2c.4 1.2 1.5 2 2.8 2 1.3 0 2.4-.8 2.8-2H16V7h-2.2c-.4-1.2-1.5-2-2.8-2zm0 4c-.6 0-1-.4-1-1s.4-1 1-1 1 .4 1 1-.4 1-1 1z"/></svg>

<svg width="16px" height="16px" viewBox="0 0 16 16" version="1.1" xmlns="http://www.w3.org/2000/svg" xmlns:xlink="http://www.w3.org/1999/xlink" fill-rule="evenodd">
	<path d="M5,0 C3.7,0 2.6,0.8 2.2,2 L0,2 L0,4 L2.2,4 C2.6,5.2 3.7,6 5,6 C6.3,6 7.4,5.2 7.8,4 L16,4 L16,2 L7.8,2 C7.4,0.8 6.3,0 5,0 L5,0 L5,0 Z M5,4 C4.4,4 4,3.6 4,3 C4,2.4 4.4,2 5,2 C5.6,2 6,2.4 6,3 C6,3.6 5.6,4 5,4 L5,4 L5,4 Z" id="Shape" fill="#231F20"></path>
	<path d="M5,10 C3.7,10 2.6,10.8 2.2,12 L0,12 L0,14 L2.2,14 C2.6,15.2 3.7,16 5,16 C6.3,16 7.4,15.2 7.8,14 L16,14 L16,12 L7.8,12 C7.4,10.8 6.3,10 5,10 L5,10 L5,10 Z M5,14 C4.4,14 4,13.6 4,13 C4,12.4 4.4,12 5,12 C5.6,12 6,12.4 6,13 C6,13.6 5.6,14 5,14 L5,14 L5,14 Z" id="Shape" fill="#231F20"></path>
	<path d="M11,5 C9.7,5 8.6,5.8 8.2,7 L0,7 L0,9 L8.2,9 C8.6,10.2 9.7,11 11,11 C12.3,11 13.4,10.2 13.8,9 L16,9 L16,7 L13.8,7 C13.4,5.8 12.3,5 11,5 L11,5 L11,5 Z M11,9 C10.4,9 10,8.6 10,8 C10,7.4 10.4,7 11,7 C11.6,7 12,7.4 12,8 C12,8.6 11.6,9 11,9 L11,9 L11,9 Z" id="Shape" fill="#231F20"></path>
</svg>
